X:508
T:Quan vei l'aloete mover
Z:Jack Campin, http://www.campin.me.uk/
F:Jack Campin's Nine-Note Tunebook
% last edit 03-02-2013
C:Bernard de Ventadorn
M:3/4
L:1/8
Q:1/4=100
K:DMin
   D2        F2  A2 | A4       A2  |(BA G2) (AG)      |   G4            \
B2|A4            B2 | c4      (AG) |(G2 F2) (GA)      |   A6           |
   c2        d2 (cB)| A2 G2 (3(GAB)|(A2 F2) (G/A/G/F/)|   F6           |\
   G2        A2  B2 | c4       A2  | G4      E2       |  (G/F/F/E/ D4) |
  (A/B/A/G/) A2  B2 | c4       B2  | c4      d2       |   G4            \
A2|c4            A2 | B4    (3(AGF)| G4   (3(AGF)     |   F6           |
   G2        A2  B2 | c4       A2  | G4      E2       |(3(FED E2)       \
E2|G4            A2 |(G2 F2)(3(GAG)|(E2 C2) (DE)      |  (G/F/F/E/ D4)|]

